build/dist/assets/images/aboutClinic/star.svg

<svg width="31" height="29" viewBox="0 0 31 29" fill="none" xmlns="http://www.w3.org/2000/svg">
<path d="M13.5979 1.8541C14.1966 0.0114784 16.8034 0.0114794 17.4021 1.8541L19.5413 8.43769C19.809 9.26174 20.5769 9.81966 21.4434 9.81966H28.3658C30.3032 9.81966 31.1088 12.2989 29.5413 13.4377L23.941 17.5066C23.24 18.0159 22.9467 18.9186 23.2145 19.7426L25.3536 26.3262C25.9523 28.1689 23.8433 29.7011 22.2759 28.5623L16.6756 24.4934C15.9746 23.9841 15.0254 23.9841 14.3244 24.4934L8.72409 28.5623C7.15666 29.7011 5.0477 28.1689 5.64641 26.3262L7.78555 19.7426C8.0533 18.9186 7.75998 18.0159 7.059 17.5066L1.45867 13.4377C-0.108762 12.2989 0.69679 9.81966 2.63424 9.81966H9.55664C10.4231 9.81966 11.191 9.26174 11.4587 8.43769L13.5979 1.8541Z" fill="#FFD700"/>
</svg>

<svg width="31" height="29" fill="none" xmlns="http://www.w3.org/2000/svg"><path d="M13.598 1.854c.599-1.843 3.205-1.843 3.804 0l2.14 6.584a2 2 0 001.901 1.382h6.923c1.937 0 2.743 2.479 1.175 3.618l-5.6 4.069a2 2 0 00-.726 2.236l2.139 6.583c.598 1.843-1.51 3.375-3.078 2.236l-5.6-4.069a2 2 0 00-2.352 0l-5.6 4.07c-1.567 1.138-3.676-.394-3.078-2.237l2.14-6.583a2 2 0 00-.727-2.236l-5.6-4.07C-.11 12.3.697 9.82 2.634 9.82h6.923a2 2 0 001.902-1.382l2.139-6.584z" fill="gold"/></svg>
